packages/symbols/svgs/duotone/board-duotone.svg

<svg width="24" height="24" viewBox="0 0 24 24" fill="none" xmlns="http://www.w3.org/2000/svg">
<g clip-path="url(#clip0_1150_3765)">
<path opacity="0.5" fill-rule="evenodd" clip-rule="evenodd" d="M12 0C12.5523 0 13 0.447715 13 1V2H21C21.5523 2 22 2.44772 22 3V18H23C23.5523 18 24 18.4477 24 19C24 19.5523 23.5523 20 23 20H21H16.4142L18.7071 22.2929C19.0976 22.6834 19.0976 23.3166 18.7071 23.7071C18.3166 24.0976 17.6834 24.0976 17.2929 23.7071L13.5858 20H13V22C13 22.5523 12.5523 23 12 23C11.4477 23 11 22.5523 11 22V20H10.4142L6.70711 23.7071C6.31658 24.0976 5.68342 24.0976 5.29289 23.7071C4.90237 23.3166 4.90237 22.6834 5.29289 22.2929L7.58579 20H3H1C0.447715 20 0 19.5523 0 19C0 18.4477 0.447715 18 1 18H2V3C2 2.44772 2.44772 2 3 2H11V1C11 0.447715 11.4477 0 12 0ZM12 18H13.999H14.001H20V4H12H4V18H9.99902H10.001H12Z" fill="black"/>
<path fill-rule="evenodd" clip-rule="evenodd" d="M12 7C12.5523 7 13 7.44772 13 8V14C13 14.5523 12.5523 15 12 15C11.4477 15 11 14.5523 11 14V8C11 7.44772 11.4477 7 12 7ZM16 9C16.5523 9 17 9.44772 17 10V14C17 14.5523 16.5523 15 16 15C15.4477 15 15 14.5523 15 14V10C15 9.44772 15.4477 9 16 9ZM9 12C9 11.4477 8.55228 11 8 11C7.44772 11 7 11.4477 7 12V14C7 14.5523 7.44772 15 8 15C8.55228 15 9 14.5523 9 14V12Z" fill="black"/>
</g>
<defs>
<clipPath id="clip0_1150_3765">
<rect width="24" height="24" fill="white"/>
</clipPath>
</defs>
</svg>

<svg width="24" height="24" viewBox="0 0 24 24" xmlns="http://www.w3.org/2000/svg"><g clip-path="url(#a)" fill-rule="evenodd" clip-rule="evenodd"><path opacity=".5" d="M12 0a1 1 0 0 1 1 1v1h8a1 1 0 0 1 1 1v15h1a1 1 0 1 1 0 2h-6.586l2.293 2.293a1 1 0 0 1-1.414 1.414L13.586 20H13v2a1 1 0 1 1-2 0v-2h-.586l-3.707 3.707a1 1 0 0 1-1.414-1.414L7.586 20H1a1 1 0 1 1 0-2h1V3a1 1 0 0 1 1-1h8V1a1 1 0 0 1 1-1Zm0 18h8V4H4v14h8Z"/><path d="M12 7a1 1 0 0 1 1 1v6a1 1 0 1 1-2 0V8a1 1 0 0 1 1-1Zm4 2a1 1 0 0 1 1 1v4a1 1 0 1 1-2 0v-4a1 1 0 0 1 1-1Zm-7 3a1 1 0 1 0-2 0v2a1 1 0 1 0 2 0v-2Z"/></g><defs><clipPath id="a"><path fill="#fff" d="M0 0h24v24H0z"/></clipPath></defs></svg>
